icons/save-2-fill.svg

<svg viewBox="0 0 24 24" fill="currentColor" xmlns="http://www.w3.org/2000/svg">
    <path d="M4 3H17L20.7071 6.70711C20.8946 6.89464 21 7.149 21 7.41421V20C21 20.5523 20.5523 21 20 21H4C3.44772 21 3 20.5523 3 20V4C3 3.44772 3.44772 3 4 3ZM12 18C13.6569 18 15 16.6569 15 15C15 13.3431 13.6569 12 12 12C10.3431 12 9 13.3431 9 15C9 16.6569 10.3431 18 12 18ZM5 5V9H15V5H5Z"/>
</svg>

<svg xmlns="http://www.w3.org/2000/svg" viewBox="0 0 24 24">
    <g>
        <path fill="none" d="M0 0h24v24H0z"/>
        <path d="M4 3h13l3.707 3.707a1 1 0 0 1 .293.707V20a1 1 0 0 1-1 1H4a1 1 0 0 1-1-1V4a1 1 0 0 1 1-1zm8 15a3 3 0 1 0 0-6 3 3 0 0 0 0 6zM5 5v4h10V5H5z"/>
    </g>
</svg>
